templates/default/images/icon_crss.svg

<svg id="Layer_1" data-name="Layer 1" xmlns="http://www.w3.org/2000/svg" xmlns:xlink="http://www.w3.org/1999/xlink" viewBox="0 0 210 237.5"><defs><style>.cls-1{fill:none;}.cls-2{clip-path:url(#clip-path);}.cls-3{fill:#52668c;}</style><clipPath id="clip-path" transform="translate(-55 -40)"><rect class="cls-1" x="55" y="40" width="210" height="237.5"/></clipPath></defs><g class="cls-2"><path class="cls-3" d="M250,165H70V55H250ZM132,180H188c.07.21.12.42.21.63L204,215H116l15.79-34.37A5.25,5.25,0,0,0,132,180m133-10V50a10,10,0,0,0-10-10H65A10,10,0,0,0,55,50V170a10,10,0,0,0,10,10h50.6L75.68,266.87a7.5,7.5,0,0,0,3.69,9.94,7.4,7.4,0,0,0,3.12.69,7.5,7.5,0,0,0,6.82-4.37L106.83,235H213.17l17.51,38.13a7.51,7.51,0,0,0,6.82,4.37,7.41,7.41,0,0,0,3.13-.69,7.5,7.5,0,0,0,3.69-9.94L204.4,180H255a10,10,0,0,0,10-10" transform="translate(-55 -40)"/></g></svg>

<?xml version="1.0" encoding="utf-8"?>
<!-- Generator: Adobe Illustrator 26.3.1, SVG Export Plug-In . SVG Version: 6.00 Build 0)  -->
<svg version="1.1" id="Layer_1" xmlns="http://www.w3.org/2000/svg" xmlns:xlink="http://www.w3.org/1999/xlink" x="0px" y="0px"
	 viewBox="0 0 320 320" style="enable-background:new 0 0 320 320;" xml:space="preserve">
<style type="text/css">
	.st0{clip-path:url(#SVGID_00000111871003734646183930000005201939514507991716_);fill:#52668C;}
	.st1{fill:none;}
</style>
<g>
	<defs>
		<rect id="SVGID_1_" x="55" y="40" width="210" height="237.5"/>
	</defs>
	<clipPath id="SVGID_00000015342783076466152510000014576039516096743332_">
		<use xlink:href="#SVGID_1_"  style="overflow:visible;"/>
	</clipPath>
	<path style="clip-path:url(#SVGID_00000015342783076466152510000014576039516096743332_);fill:#52668C;" d="M250,165H70V55h180V165
		z M132,180H188c0.1,0.2,0.1,0.4,0.2,0.6L204,215h-88l15.8-34.4C131.9,180.4,132,180.2,132,180 M265,170V50c0-5.5-4.5-10-10-10H65
		c-5.5,0-10,4.5-10,10v120c0,5.5,4.5,10,10,10h50.6l-39.9,86.9c-1.7,3.8-0.1,8.2,3.7,9.9c1,0.5,2.1,0.7,3.1,0.7
		c2.8,0,5.6-1.6,6.8-4.4l17.5-38.1h106.3l17.5,38.1c1.3,2.8,4,4.4,6.8,4.4c1,0,2.1-0.2,3.1-0.7c3.8-1.7,5.4-6.2,3.7-9.9L204.4,180
		H255C260.5,180,265,175.5,265,170"/>
</g>
<rect class="st1" width="320" height="320"/>
</svg>
